X:1
T:A Flight of Angels
T:A Flight of Angels
T:A Flight of Angels
T:Voluntary for a musical clock (HWV 600) adapted for Flute Duet 
T:Georg Friedrich Händel (1685-1759)
T:twoflutes 2020 / Felix Scharpf / https://commons.wikimedia.org/wiki/File:Ormalu7.jpg
T:twoflutes 2020 / Felix Scharpf / https://commons.wikimedia.org/wiki/File:Ormalu7.jpg
T:twoflutes 2020 / Felix Scharpf / https://commons.wikimedia.org/wiki/File:Ormalu7.jpg
C:Georg Friedrich Händel (1685-17699
Z:twoflutes 2020 / Felix Scharpf / https://commons.wikimedia.org/wiki/File:Ormalu7.jpg
%%score [ 1 2 ]
L:1/8
Q:1/4=105
M:4/4
K:C
V:1 treble nm="Flöte"
V:2 treble nm="Flöte"
V:1
!f! (c/G/).c/.d/ (e/d/).e/.c/ (d/G/).d/.e/ (f/e/).f/.d/ | .e.g Mc'4 Pb2 | %2
!>(! (c'/g/).a/.f/ (g/e/).f/.d/ (e/c/)(!>!a/c/) (!>!g/c/)(!>!f/c/) | %3
 (!>!e/c/)(!>!f/c/) (!>!g/c/)(!>!a/c/) (B/c/)(A/B/ c/d/e/f/)!>)! | %4
!mf! (!>!g/c/)!<(!(g/c/) (!>!g/c/)(g/c/) .a/(A/B/c/ d/e/f/g/) | %5
 (!>!a/d/)(a/d/) (!>!a/d/)(a/d/) .b/(B/c/d/ e/f/g/a/) | %6
 (!>!b/e/)(b/e/) (!>!b/e/)(b/e/)!<)!!f! (c'/!>(!b/a/g/ f/e/d/c/) | %7
 (B/G/)(c/E/) (D/c/)(G/B/) .c/(E/F/G/)!>)!!mf! .C.a | Tg3 (f/4g/4a/) Tg3 (f/4g/4a/) | %9
 (g/f/).g/.e/ (f/e/).f/.d/ .e/c'/.e/c'/ .e/c'/.e/c'/ | %10
 .d/c'/.d/c'/ .d/b/.d/b/ .c/b/.c/b/ .c/a/.c/a/ | %11
 (B/d/e/f/) (g/d/).g/.f/ (!>!e/c'/)(!>!d/b/) (!>!c/a/)(!>!B/g/) | %12
 .A/.D/(d/c/) .B/.G/(g/d/) (e/d/c/B/) TA>G | !tenuto!G!mp!.g.g.g .g.g.g.g | %14
 !tenuto!A.f.f.f .f.f.f.f | %15
!mf! .B/!<(!(g/f/g/) .e/(c'/b/c'/) (!>!a/c/)(!>!g/c/) (!>!f/c/)(!>!e/c/) | %16
 (d/c/B/A/) .G z!<)!!f! (c/G/).c/.d/ (e/d/).e/.c/ | (d/G/).d/.e/ (f/e/).f/.d/ .e.g Mc'2- | %18
 c'2 Pb2!>(! (c'/g/).a/.f/ (g/e/).f/.d/ | .e.c f2- f[Q:1/4=90]"_rit.".g.e[Q:1/4=80].d | %20
[Q:1/4=70] (Td3 c)!>)!!mp! !fermata!c4 |] %21
V:2
 z8 |!f! (c/G/).c/.d/ (e/d/).e/.c/ (d/G/).d/.e/ (f/e/).f/.d/ |!>(! .e.c z2 z .F.E.D | %3
 .C.D.E.F z4!>)! |!mf! .E!<(!.D.E.C F2 z2 | .F.E.F.D G2 z2 | .G.F.G.E!<)! A2 z .F | %7
 .G z z .G C2 z2 | z .c !tenuto!B2 z .c !tenuto!B2 | z .c.A.B .c.A.E.C | .G.A.B.G .A.G.A.D | %11
 G2 z .B .c.G.C.E | .E z z .B .c.C D2 |!f! .G/(d/c/d/) (B/c/)A/(B/ (G/)A/)(F/G/) (E/F/)(D/E/) | %14
 .C/(c/B/c/) (A/B/)(G/A/) (F/G/)(E/F/) .D/(d/c/d/) | .G.B.c.C .F.E.D.C | G2 (G/F/E/D/) .E.C c2- | %17
 c2 B2 (c/G/).c/.d/ (e/d/).e/.c/ | (d/G/).d/.e/ (f/e/).f/.d/!>(! (e/c/).f/.d/ (e/c/).d/.B/ | %19
 (c/B/A/G/ F/E/D/C/) .B.G.c.F | .G.c B2!>)!!mp! !fermata!C4 |] %21

